X:799
T:Boil the Breakfast Early
R:reel
D:Paddy Glackin & Robbie Hannan: The Whirlwind
Z:id:hn-reel-799
M:C|
K:G
~G3B ADDF|GB~B2 cABA|GcBG ADEF|GE~E2 cABA|
~G3B ADDF|GB~B2 cABc|dBcA BGAF|GE~E2 cABc||
d2fd edBA|(3Bcd ef gefe|d2fd edBA|GE~E2 cABc|
d2fd edBA|(3Bcd ef g2fg|afge fdcA|GE~E2 c2Bc||
dA~A2 dAFA|dA~A2 defe|dA~A2 dAFA|GE~E2 c2Bc|
dA~A2 dAFA|dA~A2 defe|dBcA (3Bcd AF|GA (3Bcd gdBA||
P:variations
G2BG AD~D2|GB (3GAB c2BA|G2BG AD~D2|GE~E2 c2BA|
~G3B AD~D2|GABG c2Bc|dBcA BGAF|GEcE GABc||
d2fd edfd|d2ef ge^ce|defd AB=cA|GEcE GABc|
d2fd edfd|d2ef gefg|(3agf ge dBcA|GE~E2 GABc||
dAFA dAFA|dA~A2 dfe^c|dAFA dAFA|GE=cE GABc|
dAFA dAFA|~d3A dfe^c|dB=cA BGAF|GE~E2 c2BA||
P:more variations
GABG AD~D2|GABG c2BA|GABG ADEF|GE~E2 c2BA|
~G3B AD~D2|G2BG c2Bc|dBcA BGAF|GE~E2 c2Bc ||
d2fd edfd|(3Bcd ef gefe|defd AB=cA|GEcE GABc|
d2fd edfd|(3Bcd ef gefg|(3agf ge dBcA|GE~E2 GABc||
dA~A2 dAFA|dA~A2 defe|dA~A2 dAFA|GE~E2 c2Bc|
dA~A2 dAFA|dA~A2 defe|dBcA (3Bcd AF|GA (3Bcd gedB||

